svg/u1f9c8.svg

<svg viewBox="0 0 128 128" xmlns="http://www.w3.org/2000/svg">
  <path d="M51.87,55.06c0,0-22.76,8.59-28.21,10.49c-4.19,1.47-14.04,5.32-16.49,6.54s-3.3,2.17-3.57,4.08 c-0.27,1.91-0.11,4.37,0.85,5.59s6.54,6.95,14.04,12.4s15.26,11.58,22.35,11.72c7.09,0.14,27.67-10.36,47.7-19.49 s29.98-13.76,31.35-14.58s4.67-2.29,4.56-6.78c-0.09-3.68-7.99-6.93-7.99-6.93l-27.64-13L51.87,55.06z" fill="#6CA4AE"/>
  <path d="M55.96,62.56c0,0-8.72,3.41-11.86,5.04c-3.13,1.64-27.39,10.63-27.39,10.63s-6.13,2.45-6.81,3.27 s0.55,2.73,1.36,3.82c0.82,1.09,11.74,9.26,15.81,11.72c4.35,2.64,8.99,4.91,10.63,5.04c1.64,0.14,9.81-1.5,9.81-1.5l35.98-14.62 c4.03-1.73,16.46-7.68,22.22-10.33c5.76-2.65,11.2-5.53,13.14-6.77c1.89-1.2,4.07-2.59,4.01-5.35c-0.05-2.11-1.84-2.99-4.14-4.38 c-2.3-1.38-11.28-5.41-11.28-5.41L55.96,62.56z" fill="#A8CFD7"/>
  <path d="M97.55,58.87L49.4,66.09c0,0-2.22,0.7-1.7,2.16s3.06,2.55,5.99,4.33 c2.93,1.78,21.28,12.72,23.89,12.76c0.82,0.01,3.51-1.29,5.86-2.27c5.46-2.26,13.63-6.25,17.97-8.39c6.31-3.12,13.71-5.65,13.5-7.95 c-0.21-2.3-4.61-3.77-4.61-3.77L97.55,58.87z" fill="#6BA3AC"/>
  <path d="M51.82,78.34c3.69,1.01,9.88,3.1,9.88,3.1l11.73,6.11l-13.99,7.87l-7.96,2.26 c0,0-5.36,1.17-8.63,1.26c-3.27,0.08-7.87-1.93-7.87-1.93L51.82,78.34z" fill="#6BA3AC"/>
  <path d="M5.98,72.24c0,0-1.53,0.7-2.16,2.26c-0.94,2.32,0.81,3.9,1.43,4.79c1.28,1.83,7.04,7.03,7.04,7.03 s-2.11-2.34-2.07-4.02c0.02-0.69,0.43-1.83,0.43-1.83s-2.84-3.16-3.33-3.9s-1.38-2.02-0.84-2.91c0.54-0.89,1.84-1.51,1.58-1.95 C7.93,71.47,6.77,71.89,5.98,72.24z" fill="#DCEDF6"/>
  <path d="M37.28,101.6c-0.65,0.45,3.05,1.35,8.29,0.69c5.76-0.72,40.35-17.41,40.35-17.41 s-0.24-0.94-0.84-1.41c-0.69-0.54-1.65-0.39-1.65-0.39s-28.62,12.54-32.1,14.04c-1.96,0.84-7.1,2.86-8.41,3.27 C40.83,101.03,37.56,101.41,37.28,101.6z" fill="#DCEDF6"/>
  <path d="M53.23,48.43c0,0-4.62-12.14-3.49-13.05c1.13-0.9,12.09-5.65,20.38-8.44s13.19-4.15,14.55-4.07 c1.36,0.08,6.86,1.81,11.91,3.54c5.05,1.73,16.21,6.33,16.28,9.05c0.08,2.71-17.26,22.99-17.26,22.99L53.23,48.43z" fill="#FFE265"/>
  <path d="M77.95,47.96c0.74-1.24,8.71-4.17,18.61-7.89c9.41-3.53,15.34-5.59,16.14-5.1 c1.23,0.76,1.02,6.46,0.91,16.2c-0.08,7.1-0.27,12.73-1.32,13.87c-0.99,1.07-11.06,5.61-16.76,8.34c-5.7,2.72-16.31,7.83-18.18,8.06 c-2.33,0.29-4.83-1.07-4.83-1.07L77.95,47.96z" fill="#FEB502"/>
  <path d="M48.81,66.37c0.92,2.02,6.89,5.21,11.97,8.01c5.7,3.14,13.46,7.92,15.68,6.93 c1.56-0.69,1.49-15.27,1.49-21.13s0.21-11.85-0.08-12.26c-0.57-0.81-10.57-5.16-13.95-6.81c-3.38-1.65-13.2-6.88-14.28-5.61 c-1.08,1.27-0.74,8.75-0.83,17.33S47.98,64.56,48.81,66.37z" fill="#FFEBC9"/>
  <path d="M36.36,89.08L12.81,74.24c0,0-1.81-0.39-2.03,1.01c-0.22,1.4-0.7,5.78-0.25,6.59 c0.44,0.81,6.5,5.83,9.67,8.12s12.69,9.44,13.58,9.44c0.89,0,7.17-6.48,7.17-6.48L36.36,89.08z" fill="#FFE265"/>
  <path d="M33.85,91l7.68-7.9l20.18-1.66c0,0,1.75,0.25,1.75,1.8s0.37,5.09-0.52,5.83s-8.11,2.92-13.73,4.87 c-6.79,2.36-14.56,5.65-15.5,5.46C33.33,99.34,33.85,91,33.85,91z" fill="#FEB502"/>
  <path d="M37.84,67.96c-2.58-0.11-11.48,3.06-15.2,3.83c-3.89,0.81-10.27,1.86-11.08,2.59s2.11,2.85,4.2,4.37 c2.49,1.81,14.28,9.99,15.61,11.03c1.33,1.03,2.51,1.7,4.36,0.96c1.85-0.74,7.64-3.01,13.84-4.71c6.2-1.7,13.66-3.69,13.36-4.06 c-0.3-0.37-8.99-5.44-14.15-8.47C45.23,71.43,41.23,68.11,37.84,67.96z" fill="#FFEBC9"/>
</svg>

<svg viewBox="0 0 128 128" xmlns="http://www.w3.org/2000/svg">
  <defs/>
  <path d="M51.87,55.06 C51.87,55.06 29.11,63.65 23.66,65.55 C19.47,67.02 9.62,70.87 7.17,72.09 C4.72,73.31 3.87,74.26 3.6,76.17 C3.33,78.08 3.49,80.54 4.45,81.76 C5.41,82.98 10.99,88.71 18.49,94.16 C25.99,99.61 33.75,105.74 40.84,105.88 C47.93,106.02 68.51,95.52 88.54,86.39 C108.57,77.26 118.52,72.63 119.89,71.81 C121.26,70.99 124.56,69.52 124.45,65.03 C124.36,61.35 116.46,58.1 116.46,58.1 L88.82,45.1 L51.87,55.06 Z" fill="#6CA4AE"/>
  <path d="M55.96,62.56 C55.96,62.56 47.24,65.97 44.1,67.6 C40.97,69.24 16.71,78.23 16.71,78.23 C16.71,78.23 10.58,80.68 9.9,81.5 C9.22,82.32 10.45,84.23 11.26,85.32 C12.08,86.41 23,94.58 27.07,97.04 C31.42,99.68 36.06,101.95 37.7,102.08 C39.34,102.22 47.51,100.58 47.51,100.58 L83.49,85.96 C87.52,84.23 99.95,78.28 105.71,75.63 C111.47,72.98 116.91,70.1 118.85,68.86 C120.74,67.66 122.92,66.27 122.86,63.51 C122.81,61.4 121.02,60.52 118.72,59.13 C116.42,57.75 107.44,53.72 107.44,53.72 L55.96,62.56 Z" fill="#A8CFD7"/>
  <path d="M97.55,58.87 L49.4,66.09 C49.4,66.09 47.18,66.79 47.7,68.25 C48.22,69.71 50.76,70.8 53.69,72.58 C56.62,74.36 74.97,85.3 77.58,85.34 C78.4,85.35 81.09,84.05 83.44,83.07 C88.9,80.81 97.07,76.82 101.41,74.68 C107.72,71.56 115.12,69.03 114.91,66.73 C114.7,64.43 110.3,62.96 110.3,62.96 L97.55,58.87 Z" fill="#6BA3AC"/>
  <path d="M51.82,78.34 C55.51,79.35 61.7,81.44 61.7,81.44 L73.43,87.55 L59.44,95.42 L51.48,97.68 C51.48,97.68 46.12,98.85 42.85,98.94 C39.58,99.02 34.98,97.01 34.98,97.01 L51.82,78.34 Z" fill="#6BA3AC"/>
  <path d="M5.98,72.24 C5.98,72.24 4.45,72.94 3.82,74.5 C2.88,76.82 4.63,78.4 5.25,79.29 C6.53,81.12 12.29,86.32 12.29,86.32 C12.29,86.32 10.18,83.98 10.22,82.3 C10.24,81.61 10.65,80.47 10.65,80.47 C10.65,80.47 7.81,77.31 7.32,76.57 C6.83,75.83 5.94,74.55 6.48,73.66 C7.02,72.77 8.32,72.15 8.06,71.71 C7.93,71.47 6.77,71.89 5.98,72.24 Z" fill="#DCEDF6"/>
  <path d="M37.28,101.6 C36.63,102.05 40.33,102.95 45.57,102.29 C51.33,101.57 85.92,84.88 85.92,84.88 C85.92,84.88 85.68,83.94 85.08,83.47 C84.39,82.93 83.43,83.08 83.43,83.08 C83.43,83.08 54.81,95.62 51.33,97.12 C49.37,97.96 44.23,99.98 42.92,100.39 C40.83,101.03 37.56,101.41 37.28,101.6 Z" fill="#DCEDF6"/>
  <path d="M53.23,48.43 C53.23,48.43 48.61,36.29 49.74,35.38 C50.87,34.48 61.83,29.73 70.12,26.94 C78.41,24.15 83.31,22.79 84.67,22.87 C86.03,22.95 91.53,24.68 96.58,26.41 C101.63,28.14 112.79,32.74 112.86,35.46 C112.94,38.17 95.6,58.45 95.6,58.45 L53.23,48.43 Z" fill="#FFE265"/>
  <path d="M77.95,47.96 C78.69,46.72 86.66,43.79 96.56,40.07 C105.97,36.54 111.9,34.48 112.7,34.97 C113.93,35.73 113.72,41.43 113.61,51.17 C113.53,58.27 113.34,63.9 112.29,65.04 C111.3,66.11 101.23,70.65 95.53,73.38 C89.83,76.1 79.22,81.21 77.35,81.44 C75.02,81.73 72.52,80.37 72.52,80.37 L77.95,47.96 Z" fill="#FEB502"/>
  <path d="M48.81,66.37 C49.73,68.39 55.7,71.58 60.78,74.38 C66.48,77.52 74.24,82.3 76.46,81.31 C78.02,80.62 77.95,66.04 77.95,60.18 C77.95,54.32 78.16,48.33 77.87,47.92 C77.3,47.11 67.3,42.76 63.92,41.11 C60.54,39.46 50.72,34.23 49.64,35.5 C48.56,36.77 48.9,44.25 48.81,52.83 C48.72,61.41 47.98,64.56 48.81,66.37 Z" fill="#FFEBC9"/>
  <path d="M36.36,89.08 L12.81,74.24 C12.81,74.24 11,73.85 10.78,75.25 C10.56,76.65 10.08,81.03 10.53,81.84 C10.97,82.65 17.03,87.67 20.2,89.96 C23.37,92.25 32.89,99.4 33.78,99.4 C34.67,99.4 40.95,92.92 40.95,92.92 L36.36,89.08 Z" fill="#FFE265"/>
  <path d="M33.85,91 L41.53,83.1 L61.71,81.44 C61.71,81.44 63.46,81.69 63.46,83.24 C63.46,84.79 63.83,88.33 62.94,89.07 C62.05,89.81 54.83,91.99 49.21,93.94 C42.42,96.3 34.65,99.59 33.71,99.4 C33.33,99.34 33.85,91 33.85,91 Z" fill="#FEB502"/>
  <path d="M37.84,67.96 C35.26,67.85 26.36,71.02 22.64,71.79 C18.75,72.6 12.37,73.65 11.56,74.38 C10.75,75.11 13.67,77.23 15.76,78.75 C18.25,80.56 30.04,88.74 31.37,89.78 C32.7,90.81 33.88,91.48 35.73,90.74 C37.58,90 43.37,87.73 49.57,86.03 C55.77,84.33 63.23,82.34 62.93,81.97 C62.63,81.6 53.94,76.53 48.78,73.5 C45.23,71.43 41.23,68.11 37.84,67.96 Z" fill="#FFEBC9"/>
</svg>
